web/workspace/public/assets/icons/grid.svg

<svg xmlns="http://www.w3.org/2000/svg" width="30" height="30" viewBox="0 0 30 30"><path d="M2 14h12V2H2v12zM4 4h8v8H4V4zm12-2v12h12V2H16zm10 10h-8V4h8v8zM2 28h12V16H2v12zm2-10h8v8H4v-8zm12 10h12V16H16v12zm2-10h8v8h-8v-8z"/></svg>

<?xml version="1.0" encoding="iso-8859-1"?>
<!-- Generator: Adobe Illustrator 14.0.0, SVG Export Plug-In . SVG Version: 6.00 Build 43363)  -->
<!DOCTYPE svg PUBLIC "-//W3C//DTD SVG 1.1//EN" "http://www.w3.org/Graphics/SVG/1.1/DTD/svg11.dtd">
<svg version="1.1" id="Layer_1" xmlns="http://www.w3.org/2000/svg" xmlns:xlink="http://www.w3.org/1999/xlink" x="0px" y="0px"
	 width="30px" height="30px" viewBox="0 0 30 30" style="enable-background:new 0 0 30 30;" xml:space="preserve">
<path d="M2,14h12V2H2V14z M4,4h8v8H4V4z M16,2v12h12V2H16z M26,12h-8V4h8V12z M2,28h12V16H2V28z M4,18h8v8H4V18z M16,28h12V16H16V28
	z M18,18h8v8h-8V18z"/>
</svg>
